X: 24701
T: MacNeils Of Ugadale, The
R: jig
M: 6/8
K: Amajor
|:e|c>dB A>AA|c<ee e>cA|f>ec e2a|a>ec B2e|
c>dB A>AA|c<ee e>cA|c<dB e>fc|A3 ~A2:|
|:e|a>gf e2a|e>fe e>ce|a>gf e2a|a>ec B2e|
[1 a>gf e2a|e>fe e>cA|c<dB e>fc|A3 ~A2:|
[2 c>dB A>AA|c<ee e>cA|c<dB e>fc|A3 ~A2||
|:e/d/|c3 A3|c<ee e>cA|f3 d2a|a>ec B2e/d/|
c3 A3|c<ee e>cA|c>dB e>fc|A3 ~A2:|
|:e|f2a d2a|e>fe e>ce|f2a d2a|a>ec B2e|
[1 f2a d2a|e>fe e>cA|c>dB e>fc|A3 ~A2:|
[2 c>dB e>fc|a>gf e2a|c>dB e>fc|A3 ~A2||

